; generated by PrusaSlicer 2.5.0+win64 on 2023-10-30 at 21:32:54 UTC


;
;
; 

; external perimeters extrusion width = 0.45mm
; perimeters extrusion width = 0.45mm
; infill extrusion width = 0.45mm
; solid infill extrusion width = 0.45mm
; top infill extrusion width = 0.40mm
; first layer extrusion width = 0.42mm

M73 P0 R55
M73 Q0 S55
M201 X1000 Y1000 Z200 E5000 ; sets maximum accelerations, mm/sec^2
M203 X200 Y200 Z12 E120 ; sets maximum feedrates, mm / sec
M204 P1250 R1250 T1250 ; sets acceleration (P, T) and retract acceleration (R), mm/sec^2
M205 X8.00 Y8.00 Z0.40 E4.50 ; sets the jerk limits, mm/sec
M205 S0 T0 ; sets the minimum extruding and travel feed rate, mm/sec
M107
;TYPE:Custom
M862.3 P "MK3" ; printer model check
M862.1 P0.4 ; nozzle diameter check
M115 U3.11.0 ; tell printer latest fw version
G90 ; use absolute coordinates
M83 ; extruder relative mode
M104 S230 ; set extruder temp
M140 S85 ; set bed temp
M190 S85 ; wait for bed temp
M109 S230 ; wait for extruder temp
G28 W ; home all without mesh bed level
G80 ; mesh bed leveling

G1 Z0.2 F720
G1 Y-3 F1000 ; go outside print area
G92 E0
G1 X60 E9 F1000 ; intro line
G1 X100 E12.5 F1000 ; intro line

G92 E0
M221 S95

; Don't change E values below. Excessive value can damage the printer.

M907 E538 ; set extruder motor current
G21 ; set units to millimeters
G90 ; use absolute coordinates
M83 ; use relative distances for extrusion
M900 K0.08 ; Filament gcode LA 1.5
M900 K45 ; Filament gcode LA 1.0
M107
;LAYER_CHANGE
;Z:0.2
;HEIGHT:0.2
;BEFORE_LAYER_CHANGE
G92 E0.0
;0.2


G1 E-1 F2100
G1 Z.2 F720
;AFTER_LAYER_CHANGE
;0.2
G1 Z.4
G1 X114.389 Y96.073 F10800
G1 Z.2 F720
G1 E1 F2100
M204 S800
;TYPE:Skirt/Brim
;WIDTH:0.42
G1 F1200
G1 X115.348 Y95.044 E.04409
G1 X116.287 Y94.212 E.03934
G1 X117.427 Y93.384 E.04416
G1 X118.51 Y92.746 E.03943
G1 X119.824 Y92.136 E.04543
G1 X121.155 Y91.677 E.04411
G1 X122.568 Y91.348 E.04549
G1 X123.809 Y91.185 E.03927
G1 X125.218 Y91.135 E.04418
G1 X126.473 Y91.212 E.03944
G1 X127.906 Y91.441 E.04551
G1 X129.258 Y91.803 E.04385
G1 X130.44 Y92.245 E.03959
G1 X131.702 Y92.86 E.044
G1 X132.774 Y93.518 E.03944
G1 X133.931 Y94.392 E.04547
G1 X134.958 Y95.35 E.04404
G1 X135.788 Y96.287 E.03925
G1 X136.616 Y97.427 E.04419
G1 X137.254 Y98.51 E.0394
G1 X137.864 Y99.824 E.04543
G1 X138.323 Y101.155 E.04411
G1 X138.651 Y102.563 E.04534
G1 X138.815 Y103.809 E.03942
G1 X138.865 Y105.218 E.04418
G1 X138.788 Y106.473 E.03944
G1 X138.559 Y107.906 E.04551
G1 X138.197 Y109.258 E.04385
G1 X137.755 Y110.44 E.03959
G1 X137.14 Y111.702 E.044
G1 X136.482 Y112.774 E.03943
G1 X135.607 Y113.932 E.04551
G1 X134.65 Y114.958 E.044
G1 X133.708 Y115.791 E.03944
G1 X132.572 Y116.616 E.044
G1 X131.49 Y117.254 E.0394
G1 X130.176 Y117.864 E.04543
G1 X128.845 Y118.323 E.04411
G1 X127.432 Y118.652 E.04549
G1 X126.191 Y118.815 E.03927
G1 X124.782 Y118.865 E.04418
G1 X123.335 Y118.766 E.04549
G1 X122.094 Y118.559 E.03946
G1 X120.744 Y118.197 E.04382
G1 X119.56 Y117.755 E.03962
G1 X118.298 Y117.14 E.044
G1 X117.226 Y116.482 E.03943
G1 X116.073 Y115.611 E.04532
G1 X115.045 Y114.653 E.04403
G1 X114.212 Y113.712 E.03941
G1 X113.384 Y112.572 E.04419
G1 X112.745 Y111.489 E.03944
G1 X112.136 Y110.176 E.04539
G1 X111.677 Y108.845 E.04411
G1 X111.384 Y107.623 E.0394
G1 X111.185 Y106.191 E.04536
G1 X111.135 Y104.782 E.04419
G1 X111.234 Y103.335 E.04549
G1 X111.441 Y102.094 E.03946
G1 X111.804 Y100.739 E.04397
G1 X112.245 Y99.56 E.03947
G1 X112.859 Y98.301 E.04391
G1 X113.517 Y97.227 E.03949
G1 X114.353 Y96.121 E.04348
M204 S1000
G1 X114.653 Y96.348 F10800
M204 S800
G1 F1200
G1 X115.612 Y95.313 E.04423
G1 X116.522 Y94.507 E.03811
G1 X117.635 Y93.699 E.04313
G1 X118.684 Y93.08 E.03819
G1 X119.963 Y92.486 E.0442
G1 X121.262 Y92.039 E.04308
G1 X122.637 Y91.719 E.04426
G1 X123.839 Y91.561 E.03803
G1 X125.214 Y91.512 E.04315
G1 X126.431 Y91.587 E.0382
G1 X127.825 Y91.81 E.04427
G1 X129.144 Y92.163 E.04282
G1 X130.29 Y92.591 E.03835
G1 X131.522 Y93.192 E.04297
G1 X132.56 Y93.828 E.0382
G1 X133.686 Y94.679 E.04423
G1 X134.689 Y95.614 E.04301
G1 X135.493 Y96.522 E.03801
G1 X136.302 Y97.636 E.04315
G1 X136.92 Y98.684 E.03817
G1 X137.514 Y99.963 E.0442
G1 X137.961 Y101.262 E.04308
G1 X138.28 Y102.632 E.04411
G1 X138.439 Y103.839 E.03819
G1 X138.488 Y105.214 E.04315
G1 X138.413 Y106.431 E.0382
G1 X138.19 Y107.825 E.04427
G1 X137.837 Y109.144 E.04282
G1 X137.409 Y110.29 E.03835
G1 X136.808 Y111.522 E.04297
G1 X136.172 Y112.56 E.0382
G1 X135.32 Y113.687 E.04427
G1 X134.386 Y114.689 E.04297
G1 X133.473 Y115.496 E.0382
G1 X132.364 Y116.302 E.04297
G1 X131.316 Y116.92 E.03816
G1 X130.037 Y117.514 E.0442
G1 X128.738 Y117.961 E.04308
G1 X127.363 Y118.281 E.04426
G1 X126.161 Y118.439 E.03803
G1 X124.786 Y118.488 E.04315
G1 X123.377 Y118.392 E.04426
G1 X122.175 Y118.19 E.03822
G1 X120.857 Y117.837 E.04279
G1 X119.71 Y117.409 E.03838
G1 X118.478 Y116.808 E.04297
G1 X117.44 Y116.172 E.0382
G1 X116.318 Y115.324 E.04409
G1 X115.314 Y114.389 E.043
G1 X114.507 Y113.478 E.03817
G1 X113.698 Y112.364 E.04316
G1 X113.08 Y111.315 E.0382
G1 X112.486 Y110.037 E.04416
G1 X112.039 Y108.738 E.04308
G1 X111.755 Y107.555 E.03817
G1 X111.561 Y106.161 E.04413
G1 X111.512 Y104.785 E.04315
G1 X111.608 Y103.377 E.04425
G1 X111.81 Y102.175 E.03822
M73 P0 R54
G1 X112.164 Y100.852 E.04294
G1 X112.591 Y99.71 E.03823
G1 X113.19 Y98.481 E.04288
G1 X113.828 Y97.441 E.03825
G1 X114.617 Y96.396 E.04106
M204 S1000
; printing object Lathe_Chuck_Adapter_10-30-23.STL id:0 copy 0
;WIPE_START
G1 F8640
G1 X115.612 Y95.313 E-.33953
G1 X116.522 Y94.507 E-.28066
G1 X117.635 Y93.699 E-.31759
G1 X117.68 Y93.672 E-.01222
;WIPE_END
G1 E-.05 F2100
G1 Z.4 F720
G1 X124.782 Y115.322 F10800
G1 Z.2 F720
G1 E1 F2100
M204 S800
;TYPE:Perimeter
;WIDTH:0.419999
G1 F1200
G1 X124.254 Y115.298 E.01657
G1 X123.71 Y115.243 E.01714
G1 X122.801 Y115.086 E.02893
G1 X121.931 Y114.857 E.02818
G1 X121.435 Y114.689 E.01645
G1 X120.925 Y114.485 E.01721
G1 X120.104 Y114.089 E.02859
G1 X119.65 Y113.83 E.01639
G1 X119.195 Y113.538 E.01694
G1 X118.757 Y113.223 E.01693
G1 X118.336 Y112.885 E.01692
G1 X117.933 Y112.527 E.01691
G1 X117.55 Y112.148 E.0169
G1 X117.187 Y111.749 E.01689
G1 X116.844 Y111.329 E.017
G1 X116.32 Y110.59 E.02841
G1 X116.028 Y110.106 E.01773
G1 X115.789 Y109.665 E.01574
G1 X115.557 Y109.174 E.01703
G1 X115.35 Y108.667 E.01715
G1 X115.062 Y107.797 E.02874
G1 X114.932 Y107.288 E.01648
G1 X114.826 Y106.757 E.01699
G1 X114.748 Y106.221 E.01698
G1 X114.699 Y105.676 E.01717
G1 X114.679 Y104.763 E.02861
G1 X114.704 Y104.242 E.01638
G1 X114.759 Y103.698 E.01713
G1 X114.913 Y102.802 E.02852
G1 X115.036 Y102.295 E.01637
G1 X115.194 Y101.774 E.01704
G1 X115.514 Y100.926 E.02843
G1 X115.732 Y100.45 E.01641
G1 X115.982 Y99.973 E.0169
G1 X116.258 Y99.508 E.01696
G1 X116.562 Y99.053 E.01715
G1 X117.122 Y98.328 E.02872
G1 X117.472 Y97.934 E.01652
G1 X117.853 Y97.549 E.017
G1 X118.254 Y97.184 E.01699
G1 X118.679 Y96.839 E.01718
G1 X119.424 Y96.311 E.02863
G1 X119.871 Y96.04 E.01639
G1 X120.353 Y95.782 E.01715
G1 X121.191 Y95.406 E.02878
G1 X122.032 Y95.112 E.02793
G1 X122.535 Y94.974 E.01637
G1 X123.061 Y94.859 E.01689
G1 X123.592 Y94.772 E.01688
G1 X124.14 Y94.712 E.01728
G1 X124.717 Y94.68 E.01811
G1 X125.411 Y94.691 E.02177
G1 X126.121 Y94.737 E.02232
G1 X126.645 Y94.807 E.01657
G1 X127.184 Y94.91 E.01719
G1 X128.068 Y95.143 E.02868
G1 X128.565 Y95.311 E.01645
G1 X129.069 Y95.511 E.01698
G1 X129.56 Y95.737 E.01697
G1 X130.045 Y95.994 E.01719
G1 X130.819 Y96.472 E.02855
G1 X131.243 Y96.777 E.01637
G1 X131.664 Y97.115 E.01692
G1 X132.067 Y97.473 E.01691
G1 X132.45 Y97.852 E.0169
G1 X132.813 Y98.251 E.01689
G1 X133.156 Y98.671 E.017
G1 X133.68 Y99.41 E.02841
G1 X133.972 Y99.894 E.01773
G1 X134.211 Y100.335 E.01574
G1 X134.443 Y100.826 E.01702
G1 X134.65 Y101.333 E.01715
G1 X134.938 Y102.203 E.02874
G1 X135.068 Y102.712 E.01648
G1 X135.174 Y103.243 E.01699
G1 X135.252 Y103.779 E.01698
G1 X135.301 Y104.324 E.01717
G1 X135.321 Y105.237 E.02861
G1 X135.296 Y105.758 E.01638
G1 X135.241 Y106.302 E.01713
G1 X135.084 Y107.205 E.02873
G1 X134.858 Y108.066 E.02791
G1 X134.691 Y108.56 E.01638
G1 X134.492 Y109.061 E.01687
G1 X134.268 Y109.549 E.01687
G1 X134.018 Y110.027 E.0169
G1 X133.728 Y110.515 E.0178
G1 X133.442 Y110.944 E.01616
G1 X133.117 Y111.38 E.01703
G1 X132.767 Y111.801 E.01718
G1 X132.134 Y112.462 E.02869
G1 X131.746 Y112.816 E.01646
G1 X131.327 Y113.159 E.01698
G1 X130.891 Y113.479 E.01697
G1 X130.432 Y113.778 E.01717
G1 X129.637 Y114.224 E.02859
G1 X129.165 Y114.447 E.01637
G1 X128.665 Y114.652 E.01693
G1 X128.156 Y114.83 E.01691
G1 X127.632 Y114.982 E.0171
G1 X126.747 Y115.175 E.02842
G1 X125.895 Y115.283 E.02692
G1 X124.842 Y115.321 E.03304
M204 S1000
G1 X124.765 Y115.699 F10800
M204 S800
;TYPE:External perimeter
G1 F1200
G1 X124.218 Y115.673 E.01719
G1 X123.648 Y115.614 E.01796
G1 X122.706 Y115.451 E.02996
G1 X121.812 Y115.215 E.029
G1 X121.296 Y115.04 E.01707
G1 X120.763 Y114.825 E.01803
G1 X119.918 Y114.417 E.02942
G1 X119.447 Y114.148 E.01701
G1 X118.976 Y113.845 E.01756
G1 X118.522 Y113.518 E.01755
G1 X118.086 Y113.168 E.01754
G1 X117.669 Y112.796 E.01753
G1 X117.272 Y112.402 E.01752
G1 X116.896 Y111.989 E.0175
G1 X116.537 Y111.548 E.01782
G1 X115.999 Y110.787 E.02924
G1 X115.696 Y110.286 E.01835
G1 X115.449 Y109.827 E.01636
G1 X115.208 Y109.318 E.01764
G1 X114.992 Y108.787 E.01797
G1 X114.697 Y107.892 E.02956
G1 X114.563 Y107.363 E.0171
G1 X114.453 Y106.812 E.01761
G1 X114.373 Y106.257 E.0176
G1 X114.322 Y105.685 E.01799
G1 X114.302 Y104.747 E.02943
G1 X114.328 Y104.206 E.017
G1 X114.388 Y103.636 E.01795
G1 X114.546 Y102.714 E.02934
G1 X114.675 Y102.188 E.01699
G1 X114.84 Y101.642 E.01787
G1 X115.17 Y100.77 E.02925
G1 X115.397 Y100.276 E.01703
G1 X115.657 Y99.782 E.01752
G1 X115.943 Y99.299 E.01758
G1 X116.262 Y98.823 E.01798
G1 X116.839 Y98.078 E.02954
G1 X117.203 Y97.67 E.01714
G1 X117.599 Y97.271 E.01762
G1 X118.014 Y96.893 E.01761
G1 X118.46 Y96.532 E.018
G1 X119.227 Y95.99 E.02946
G1 X119.691 Y95.708 E.01701
G1 X120.197 Y95.439 E.01797
G1 X121.065 Y95.051 E.02981
G1 X121.931 Y94.749 E.02875
G1 X122.453 Y94.606 E.01699
G1 X122.999 Y94.487 E.01751
G1 X123.55 Y94.397 E.0175
G1 X124.117 Y94.335 E.0179
G1 X124.714 Y94.303 E.01873
G1 X125.434 Y94.315 E.02259
G1 X126.171 Y94.363 E.02314
G1 X126.714 Y94.437 E.01719
G1 X127.278 Y94.545 E.01802
G1 X128.188 Y94.785 E.02951
G1 X128.704 Y94.96 E.01707
G1 X129.225 Y95.168 E.0176
G1 X129.734 Y95.403 E.01759
G1 X130.242 Y95.672 E.01802
G1 X131.038 Y96.166 E.02937
G1 X131.478 Y96.482 E.01699
G1 X131.914 Y96.832 E.01754
G1 X132.331 Y97.204 E.01753
G1 X132.728 Y97.598 E.01752
G1 X133.104 Y98.011 E.0175
G1 X133.463 Y98.452 E.01782
G1 X134.001 Y99.213 E.02924
G1 X134.304 Y99.714 E.01835
G1 X134.551 Y100.173 E.01636
G1 X134.792 Y100.682 E.01764
G1 X135.008 Y101.213 E.01797
G1 X135.303 Y102.108 E.02956
G1 X135.437 Y102.637 E.0171
G1 X135.547 Y103.188 E.01761
G1 X135.627 Y103.743 E.0176
G1 X135.678 Y104.315 E.01799
G1 X135.698 Y105.253 E.02943
G1 X135.672 Y105.794 E.017
G1 X135.613 Y106.364 E.01795
G1 X135.449 Y107.299 E.02976
G1 X135.216 Y108.185 E.02874
G1 X135.042 Y108.699 E.017
G1 X134.836 Y109.217 E.01749
G1 X134.603 Y109.724 E.01748
G1 X134.343 Y110.218 E.01752
G1 X134.042 Y110.723 E.01842
G1 X133.745 Y111.168 E.01678
G1 X133.408 Y111.62 E.01765
G1 X133.04 Y112.06 E.01801
G1 X132.389 Y112.74 E.02952
G1 X131.986 Y113.107 E.01708
G1 X131.551 Y113.462 E.0176
G1 X131.099 Y113.793 E.01759
G1 X130.618 Y114.106 E.01799
G1 X129.799 Y114.564 E.02941
G1 X129.309 Y114.795 E.01699
G1 X128.791 Y115.007 E.01754
G1 X128.263 Y115.192 E.01753
G1 X127.714 Y115.35 E.01792
G1 X126.803 Y115.548 E.02925
G1 X125.931 Y115.659 E.02754
G1 X124.825 Y115.697 E.03469
M204 S1000
G1 X124.568 Y115.351 F10800
;WIPE_START
G1 F8640
G1 X124.218 Y115.673 E-.14044
G1 X123.648 Y115.614 E-.13226
G1 X122.706 Y115.451 E-.22063
G1 X121.812 Y115.215 E-.21359
G1 X121.296 Y115.04 E-.12571
G1 X120.825 Y114.85 E-.11737
;WIPE_END
G1 E-.05 F2100
G1 Z.4 F720
G1 X117.771 Y100.689 F10800
G1 Z.2 F720
G1 E1 F2100
M204 S800
;TYPE:Perimeter
G1 F1200
G1 X117.892 Y100.569 E.00532
G1 X124.717 Y96.629 E.24711
G1 X124.995 Y96.553 E.00903
M73 Q0 S54
G1 X125.283 Y96.629 E.00933
G1 X132.108 Y100.569 E.24711
G1 X132.323 Y100.789 E.00963
G1 X132.391 Y101.059 E.00873
G1 X132.391 Y108.941 E.24711
G1 X132.313 Y109.228 E.00933
G1 X132.097 Y109.437 E.00943
G1 X125.283 Y113.371 E.2467
G1 X125.015 Y113.447 E.00873
G1 X124.717 Y113.371 E.00963
G1 X117.892 Y109.431 E.24711
G1 X117.685 Y109.223 E.00918
G1 X117.609 Y108.941 E.00918
G1 X117.609 Y101.059 E.24711
G1 X117.687 Y100.772 E.00933
G1 X117.729 Y100.731 E.00183
M204 S1000
G1 X118.035 Y100.932 F10800
M204 S800
;TYPE:External perimeter
G1 F1200
G1 X124.906 Y96.955 E.2489
G1 X125.044 Y96.935 E.00438
G1 X131.92 Y100.896 E.2488
G1 X132.01 Y101.022 E.00486
G1 X132.014 Y101.7 E.02128
G1 X132.014 Y108.941 E.22701
G1 X131.962 Y109.07 E.00438
G1 X125.094 Y113.045 E.2488
G1 X124.978 Y113.069 E.00373
G1 X123.923 Y112.477 E.03792
G1 X118.08 Y109.104 E.21153
G1 X117.99 Y108.978 E.00486
G1 X117.986 Y101.059 E.24829
G1 X118.014 Y100.988 E.0024
M204 S1000
G1 X117.899 Y100.556 F10800
;WIPE_START
G1 F8640
G1 X121.565 Y98.91 E-.95
;WIPE_END
G1 E-.05 F2100
G1 Z.4 F720
G1 X133.383 Y99.185 F10800
G1 Z.2 F720
G1 E1 F2100
M204 S800
;TYPE:Solid infill
;WIDTH:0.421785
G1 F1200
G1 X131.849 Y97.656 E.06825
G1 X131.455 Y97.307 E.01656
G1 X131.044 Y96.98 E.01656
G1 X130.622 Y96.679 E.01632
G1 X129.898 Y96.236 E.02673
G1 X133.763 Y100.1 E.17216
G1 X133.948 Y100.441 E.01222
G1 X134.267 Y101.14 E.02423
G1 X128.856 Y95.729 E.24107
G1 X128.014 Y95.422 E.02826
G1 X134.567 Y101.976 E.29197
G1 X134.781 Y102.726 E.02456
G1 X127.284 Y95.228 E.33402
G1 X126.608 Y95.088 E.02175
G1 X131.29 Y99.771 E.20861
G1 X132.254 Y100.327 E.03506
G1 X132.395 Y100.429 E.00549
G1 X132.559 Y100.632 E.00823
G1 X132.631 Y100.792 E.00551
G1 X132.674 Y101.154 E.01149
G1 X134.91 Y103.39 E.09961
G1 X134.99 Y104.006 E.01956
G1 X132.674 Y101.69 E.10317
G1 X132.674 Y102.226 E.01688
G1 X135.025 Y104.577 E.10473
G1 X135.039 Y105.127 E.01734
G1 X132.674 Y102.762 E.10537
G1 X132.674 Y103.298 E.01688
G1 X135.02 Y105.644 E.10454
G1 X134.976 Y106.135 E.01555
G1 X132.674 Y103.833 E.10256
G1 X132.674 Y104.369 E.01688
G1 X134.904 Y106.599 E.09936
G1 X134.827 Y107.058 E.01466
M73 Q1 S54
G1 X132.674 Y104.905 E.09594
G1 X132.674 Y105.441 E.01688
G1 X134.719 Y107.486 E.09113
M73 P1 R54
G1 X134.609 Y107.912 E.01385
G1 X132.674 Y105.976 E.08622
G1 X132.674 Y106.512 E.01688
G1 X134.477 Y108.315 E.08032
G1 X134.33 Y108.705 E.01311
G1 X132.674 Y107.048 E.0738
G1 X132.674 Y107.584 E.01688
G1 X134.172 Y109.082 E.06674
G1 X134.002 Y109.448 E.01271
G1 X132.674 Y108.12 E.05918
G1 X132.674 Y108.655 E.01688
G1 X133.819 Y109.8 E.05101
G1 X133.623 Y110.14 E.01236
G1 X132.632 Y109.149 E.04415
G1 X132.605 Y109.276 E.00409
G1 X132.455 Y109.508 E.0087
G1 X133.418 Y110.471 E.04291
G1 X133.203 Y110.792 E.01217
G1 X132.146 Y109.735 E.04707
G1 X131.807 Y109.931 E.01236
G1 X132.975 Y111.1 E.05205
G1 X132.737 Y111.397 E.01201
G1 X131.467 Y110.127 E.05657
G1 X131.127 Y110.324 E.01236
G1 X132.488 Y111.684 E.06061
G1 X132.227 Y111.959 E.01194
G1 X130.787 Y110.52 E.06412
G1 X130.448 Y110.716 E.01236
G1 X131.965 Y112.233 E.06762
G1 X131.686 Y112.49 E.01195
G1 X130.108 Y110.912 E.07029
G1 X129.768 Y111.108 E.01236
G1 X131.397 Y112.737 E.07256
G1 X131.1 Y112.975 E.01201
G1 X129.429 Y111.304 E.07444
G1 X129.089 Y111.5 E.01236
G1 X130.792 Y113.203 E.07585
G1 X130.471 Y113.418 E.01217
G1 X128.749 Y111.696 E.07669
G1 X128.41 Y111.892 E.01236
G1 X130.137 Y113.62 E.07697
G1 X129.795 Y113.814 E.01239
G1 X128.07 Y112.089 E.07685
G1 X127.73 Y112.285 E.01236
G1 X129.447 Y114.001 E.07648
G1 X129.084 Y114.174 E.01266
G1 X127.391 Y112.481 E.07545
G1 X127.051 Y112.677 E.01236
G1 X128.705 Y114.331 E.0737
G1 X128.314 Y114.476 E.01313
G1 X126.711 Y112.873 E.07142
G1 X126.372 Y113.069 E.01236
G1 X127.91 Y114.608 E.06856
G1 X127.49 Y114.724 E.01373
G1 X126.032 Y113.265 E.06498
G1 X125.692 Y113.461 E.01236
G1 X127.052 Y114.821 E.06057
