; generated by PrusaSlicer 2.5.0+win64 on 2023-10-31 at 22:12:13 UTC


;
;
; 

; external perimeters extrusion width = 0.45mm
; perimeters extrusion width = 0.45mm
; infill extrusion width = 0.45mm
; solid infill extrusion width = 0.45mm
; top infill extrusion width = 0.40mm
; first layer extrusion width = 0.42mm

M73 P0 R58
M73 Q0 S58
M201 X1000 Y1000 Z200 E5000 ; sets maximum accelerations, mm/sec^2
M203 X200 Y200 Z12 E120 ; sets maximum feedrates, mm / sec
M204 P1250 R1250 T1250 ; sets acceleration (P, T) and retract acceleration (R), mm/sec^2
M205 X8.00 Y8.00 Z0.40 E4.50 ; sets the jerk limits, mm/sec
M205 S0 T0 ; sets the minimum extruding and travel feed rate, mm/sec
M107
;TYPE:Custom
M862.3 P "MK3" ; printer model check
M862.1 P0.4 ; nozzle diameter check
M115 U3.11.0 ; tell printer latest fw version
G90 ; use absolute coordinates
M83 ; extruder relative mode
M104 S215 ; set extruder temp
M140 S60 ; set bed temp
M190 S60 ; wait for bed temp
M109 S215 ; wait for extruder temp
G28 W ; home all without mesh bed level
G80 ; mesh bed leveling

G1 Z0.2 F720
G1 Y-3 F1000 ; go outside print area
G92 E0
G1 X60 E9 F1000 ; intro line
G1 X100 E12.5 F1000 ; intro line

G92 E0
M221 S95

; Don't change E values below. Excessive value can damage the printer.

M907 E538 ; set extruder motor current
G21 ; set units to millimeters
G90 ; use absolute coordinates
M83 ; use relative distances for extrusion
M900 K0.05 ; Filament gcode LA 1.5
M900 K30 ; Filament gcode LA 1.0
M107
;LAYER_CHANGE
;Z:0.2
;HEIGHT:0.2
;BEFORE_LAYER_CHANGE
G92 E0.0
;0.2


G1 E-.8 F2100
G1 Z.4 F720
;AFTER_LAYER_CHANGE
;0.2
G1 X115.599 Y97.102 F10800
G1 Z.2 F720
G1 E.8 F2100
M204 S800
;TYPE:Skirt/Brim
;WIDTH:0.42
G1 F1200
G1 X116.451 Y96.185 E.03925
G1 X117.291 Y95.442 E.03516
G1 X118.33 Y94.691 E.04019
G1 X119.392 Y94.077 E.03846
G1 X120.422 Y93.606 E.03553
G1 X121.592 Y93.203 E.03879
G1 X122.681 Y92.942 E.03509
G1 X123.906 Y92.77 E.03879
G1 X125.179 Y92.722 E.03994
G1 X126.469 Y92.809 E.04055
G1 X127.56 Y92.991 E.03468
G1 X128.764 Y93.312 E.03907
G1 X129.811 Y93.703 E.03502
G1 X130.928 Y94.247 E.03896
G1 X132.009 Y94.918 E.03992
G1 X132.898 Y95.599 E.0351
G1 X133.816 Y96.453 E.03931
G1 X134.558 Y97.291 E.03509
G1 X135.306 Y98.324 E.03999
G1 X135.922 Y99.389 E.03858
G1 X136.394 Y100.422 E.03562
G1 X136.797 Y101.592 E.03879
G1 X137.058 Y102.681 E.03509
G1 X137.23 Y103.904 E.03873
G1 X137.278 Y105.179 E.04001
G1 X137.211 Y106.291 E.03493
G1 X137.016 Y107.527 E.03923
G1 X136.735 Y108.613 E.03517
G1 X136.297 Y109.811 E.03998
G1 X135.752 Y110.93 E.03904
G1 X135.166 Y111.886 E.03516
G1 X134.401 Y112.898 E.03978
G1 X133.547 Y113.816 E.03932
G1 X132.579 Y114.661 E.0403
G1 X131.667 Y115.311 E.0351
G1 X130.608 Y115.924 E.03838
G1 X129.578 Y116.394 E.0355
G1 X128.408 Y116.797 E.03879
G1 X127.319 Y117.058 E.03509
G1 X126.096 Y117.23 E.03873
G1 X124.821 Y117.278 E.04001
G1 X123.709 Y117.211 E.03493
G1 X122.473 Y117.016 E.03923
G1 X121.39 Y116.736 E.03507
G1 X120.189 Y116.297 E.04009
G1 X119.07 Y115.752 E.03905
G1 X118.114 Y115.166 E.03516
G1 X117.102 Y114.402 E.03977
G1 X116.186 Y113.55 E.03921
G1 X115.442 Y112.709 E.0352
G1 X114.72 Y111.715 E.03852
G1 X114.078 Y110.611 E.04004
G1 X113.612 Y109.593 E.0351
G1 X113.203 Y108.408 E.03932
G1 X112.942 Y107.319 E.03509
G1 X112.766 Y106.046 E.0403
G1 X112.722 Y104.818 E.03855
G1 X112.809 Y103.531 E.04043
G1 X112.994 Y102.427 E.0351
G1 X113.312 Y101.237 E.03863
G1 X113.703 Y100.189 E.03504
G1 X114.267 Y99.035 E.0403
G1 X114.927 Y97.979 E.03904
G1 X115.562 Y97.149 E.03276
M204 S1000
G1 X115.861 Y97.379 F10800
M204 S800
G1 F1200
G1 X116.716 Y96.454 E.03948
G1 X117.526 Y95.737 E.03391
G1 X118.532 Y95.009 E.03896
G1 X119.578 Y94.405 E.03786
G1 X120.561 Y93.957 E.03386
G1 X121.699 Y93.565 E.03776
G1 X122.749 Y93.313 E.03385
G1 X123.942 Y93.145 E.03776
G1 X125.179 Y93.099 E.03882
G1 X126.265 Y93.165 E.0341
G1 X127.454 Y93.354 E.03777
G1 X128.5 Y93.624 E.03385
G1 X129.66 Y94.048 E.03875
G1 X130.748 Y94.578 E.03793
G1 X131.673 Y95.144 E.034
G1 X132.635 Y95.869 E.03777
G1 X133.547 Y96.717 E.03906
G1 X134.263 Y97.526 E.03385
G1 X134.988 Y98.527 E.03876
G1 X135.595 Y99.578 E.03807
G1 X136.043 Y100.561 E.03386
G1 X136.435 Y101.699 E.03776
G1 X136.687 Y102.749 E.03385
G1 X136.859 Y103.983 E.03906
G1 X136.901 Y105.179 E.03752
G1 X136.835 Y106.265 E.0341
G1 X136.647 Y107.452 E.03768
G1 X136.376 Y108.5 E.03394
G1 X135.952 Y109.66 E.03875
G1 X135.421 Y110.75 E.03801
G1 X134.856 Y111.673 E.03391
G1 X134.131 Y112.635 E.03776
G1 X133.283 Y113.547 E.03906
G1 X132.344 Y114.366 E.03906
G1 X131.465 Y114.993 E.03386
G1 X130.422 Y115.595 E.03776
G1 X129.439 Y116.043 E.03386
G1 X128.301 Y116.435 E.03776
G1 X127.251 Y116.687 E.03385
G1 X126.017 Y116.859 E.03906
G1 X124.821 Y116.901 E.03752
G1 X123.735 Y116.835 E.0341
G1 X122.548 Y116.647 E.03768
G1 X121.504 Y116.377 E.03383
G1 X120.34 Y115.952 E.03886
G1 X119.25 Y115.421 E.03801
G1 X118.327 Y114.856 E.03391
G1 X117.365 Y114.131 E.03776
G1 X116.453 Y113.283 E.03906
G1 X115.737 Y112.474 E.03385
G1 X115.012 Y111.473 E.03876
G1 X114.405 Y110.422 E.03807
G1 X113.957 Y109.439 E.03385
G1 X113.565 Y108.301 E.03776
G1 X113.313 Y107.251 E.03385
G1 X113.141 Y106.017 E.03906
G1 X113.099 Y104.821 E.03752
G1 X113.165 Y103.735 E.0341
G1 X113.353 Y102.548 E.03768
G1 X113.623 Y101.504 E.03383
G1 X114.048 Y100.34 E.03886
G1 X114.596 Y99.22 E.03906
G1 X115.237 Y98.192 E.03801
G1 X115.825 Y97.426 E.03025
M204 S1000
; printing object S1D_Nose_Cone_Tip_10-31-23.STL id:0 copy 0
;WIPE_START
G1 F8640
G1 X116.716 Y96.454 E-.30453
G1 X117.526 Y95.737 E-.24974
G1 X118.248 Y95.215 E-.20574
;WIPE_END
G1 E-.04 F2100
G1 Z.6 F720
G1 X125.61 Y113.716 F10800
G1 Z.2 F720
G1 E.8 F2100
M204 S800
;TYPE:Perimeter
;WIDTH:0.419999
G1 F1200
G1 X124.847 Y113.736 E.02391
G1 X124.089 Y113.69 E.02383
G1 X123.184 Y113.546 E.02874
G1 X122.298 Y113.309 E.02875
G1 X121.588 Y113.044 E.02375
G1 X120.764 Y112.642 E.02875
G1 X119.989 Y112.157 E.02868
G1 X119.268 Y111.594 E.02866
G1 X118.716 Y111.071 E.02384
G1 X118.115 Y110.379 E.02874
G1 X117.674 Y109.76 E.02384
G1 X117.215 Y108.967 E.02874
G1 X116.9 Y108.275 E.02384
G1 X116.601 Y107.408 E.02874
G1 X116.396 Y106.517 E.02867
G1 X116.296 Y105.764 E.02383
G1 X116.264 Y104.847 E.02875
G1 X116.328 Y103.935 E.02867
G1 X116.454 Y103.183 E.02391
G1 X116.644 Y102.448 E.02383
G1 X116.957 Y101.586 E.02874
G1 X117.358 Y100.764 E.02868
G1 X117.844 Y99.987 E.02875
G1 X118.305 Y99.386 E.02376
G1 X118.931 Y98.715 E.02875
G1 X119.621 Y98.115 E.02867
G1 X120.239 Y97.674 E.02384
G1 X121.033 Y97.215 E.02874
G1 X121.727 Y96.899 E.02391
G1 X122.443 Y96.645 E.02383
G1 X123.333 Y96.423 E.02875
G1 X124.239 Y96.296 E.02867
G1 X125.152 Y96.264 E.02867
G1 X125.911 Y96.31 E.02384
G1 X126.819 Y96.454 E.02882
G1 X127.552 Y96.644 E.02376
G1 X128.414 Y96.957 E.02875
G1 X129.236 Y97.358 E.02868
G1 X130.011 Y97.843 E.02867
G1 X130.734 Y98.407 E.02875
G1 X131.283 Y98.929 E.02376
G1 X131.885 Y99.621 E.02874
G1 X132.326 Y100.24 E.02384
G1 X132.785 Y101.033 E.02874
G1 X133.157 Y101.869 E.02867
G1 X133.398 Y102.589 E.02383
G1 X133.604 Y103.483 E.02875
G1 X133.667 Y103.995 E.01617
G1 X133.736 Y105.153 E.03637
G1 X133.69 Y105.911 E.02383
G1 X133.546 Y106.817 E.02874
G1 X133.31 Y107.7 E.02868
G1 X132.982 Y108.554 E.02867
G1 X132.643 Y109.234 E.02384
G1 X132.156 Y110.013 E.02881
G1 X131.695 Y110.614 E.02376
G1 X131.069 Y111.285 E.02875
G1 X130.379 Y111.885 E.02867
G1 X129.76 Y112.326 E.02384
G1 X128.967 Y112.785 E.02874
G1 X128.131 Y113.157 E.02867
G1 X127.41 Y113.398 E.02384
G1 X126.517 Y113.604 E.02875
G1 X125.669 Y113.709 E.02678
M204 S1000
G1 X125.638 Y114.092 F10800
M204 S800
;TYPE:External perimeter
G1 F1200
G1 X124.841 Y114.113 E.025
G1 X124.048 Y114.065 E.02491
G1 X123.105 Y113.916 E.02993
G1 X122.183 Y113.668 E.02994
G1 X121.439 Y113.39 E.02489
G1 X120.581 Y112.972 E.02994
G1 X119.772 Y112.466 E.02992
G1 X119.022 Y111.88 E.02985
G1 X118.444 Y111.332 E.02497
G1 X117.819 Y110.613 E.02987
G1 X117.356 Y109.965 E.02497
G1 X116.88 Y109.14 E.02987
G1 X116.549 Y108.415 E.02497
G1 X116.238 Y107.512 E.02993
G1 X116.024 Y106.585 E.02986
G1 X115.92 Y105.795 E.02497
G1 X115.887 Y104.841 E.02993
G1 X115.953 Y103.891 E.02985
G1 X116.084 Y103.105 E.02499
G1 X116.283 Y102.336 E.02491
G1 X116.61 Y101.439 E.02993
G1 X117.028 Y100.581 E.02991
G1 X117.534 Y99.771 E.02993
G1 X118.017 Y99.142 E.02489
G1 X118.668 Y98.443 E.02994
G1 X119.387 Y97.819 E.02985
G1 X120.035 Y97.356 E.02497
G1 X120.86 Y96.88 E.02987
G1 X121.586 Y96.549 E.02499
G1 X122.335 Y96.284 E.02491
G1 X123.261 Y96.053 E.02993
G1 X124.206 Y95.92 E.02991
G1 X125.157 Y95.887 E.02985
G1 X125.952 Y95.935 E.02497
G1 X126.896 Y96.085 E.02995
G1 X127.664 Y96.283 E.02489
G1 X128.561 Y96.61 E.02993
G1 X129.419 Y97.028 E.02992
G1 X130.228 Y97.534 E.02991
G1 X130.98 Y98.121 E.02994
G1 X131.556 Y98.668 E.02489
G1 X132.181 Y99.387 E.02987
G1 X132.644 Y100.035 E.02497
G1 X133.121 Y100.862 E.02993
G1 X133.509 Y101.732 E.02985
G1 X133.761 Y102.487 E.02497
G1 X133.976 Y103.417 E.02994
G1 X134.042 Y103.949 E.01679
G1 X134.103 Y104.779 E.02609
G1 X134.113 Y105.159 E.01193
G1 X134.065 Y105.952 E.02491
G1 X133.916 Y106.895 E.02993
G1 X133.669 Y107.817 E.02992
G1 X133.328 Y108.706 E.02985
G1 X132.972 Y109.418 E.02497
G1 X132.466 Y110.229 E.02995
G1 X131.983 Y110.858 E.02489
G1 X131.332 Y111.557 E.02993
G1 X130.613 Y112.181 E.02985
G1 X129.965 Y112.644 E.02497
G1 X129.138 Y113.121 E.02993
G1 X128.268 Y113.509 E.02985
G1 X127.513 Y113.762 E.02497
G1 X126.583 Y113.976 E.02993
G1 X125.698 Y114.085 E.02796
M204 S1000
G1 X125.412 Y113.762 F10800
;WIPE_START
G1 F8640
G1 X124.841 Y114.113 E-.19791
G1 X124.048 Y114.065 E-.18345
G1 X123.105 Y113.916 E-.22043
G1 X122.443 Y113.738 E-.15821
;WIPE_END
G1 E-.04 F2100
G1 Z.6 F720
G1 X129.783 Y97.834 F10800
G1 Z.2 F720
G1 E.8 F2100
M204 S800
;TYPE:Solid infill
;WIDTH:0.426991
G1 F1200
G1 X131.111 Y99.161 E.05996
G1 X131.663 Y99.796 E.02686
G1 X132.088 Y100.393 E.02341
G1 X132.484 Y101.077 E.02525
G1 X128.93 Y97.524 E.16049
G1 X128.303 Y97.218 E.02228
G1 X127.954 Y97.091 E.01186
G1 X132.922 Y102.059 E.22438
G1 X133.126 Y102.666 E.02044
G1 X133.167 Y102.848 E.00594
G1 X127.153 Y96.833 E.27166
G1 X126.761 Y96.731 E.01291
G1 X126.461 Y96.684 E.00972
G1 X133.328 Y103.551 E.31015
G1 X133.404 Y104.17 E.01993
G1 X125.822 Y96.588 E.34243
G1 X125.243 Y96.553 E.01851
G1 X133.443 Y104.752 E.3703
G1 X133.444 Y105.297 E.01739
G1 X124.71 Y96.563 E.39446
G1 X124.192 Y96.588 E.01655
G1 X133.413 Y105.808 E.41642
G1 X133.344 Y106.283 E.01532
G1 X123.716 Y96.655 E.43485
G1 X123.253 Y96.735 E.01502
G1 X133.27 Y106.752 E.45242
G1 X133.156 Y107.181 E.01417
G1 X122.818 Y96.843 E.4669
G1 X122.394 Y96.963 E.01406
G1 X133.041 Y107.609 E.48085
G1 X132.891 Y108.002 E.01343
G1 X121.993 Y97.105 E.49218
G1 X121.609 Y97.264 E.01328
G1 X132.74 Y108.395 E.50273
G1 X132.563 Y108.761 E.01298
G1 X121.236 Y97.434 E.51157
G1 X120.886 Y97.627 E.01277
G1 X132.38 Y109.121 E.51912
G1 X132.171 Y109.455 E.01259
G1 X120.541 Y97.826 E.52524
G1 X120.213 Y98.04 E.01253
G1 X131.962 Y109.79 E.53065
G1 X131.923 Y109.852 E.00235
G1 X131.731 Y110.102 E.01006
G1 X119.896 Y98.266 E.53454
G1 X119.597 Y98.511 E.01233
G1 X131.496 Y110.409 E.53739
G1 X131.235 Y110.692 E.01228
M73 P1 R58
M73 Q1 S58
G1 X119.306 Y98.763 E.53876
G1 X119.027 Y99.027 E.01227
G1 X130.973 Y110.973 E.53955
G1 X130.694 Y111.237 E.01227
G1 X118.765 Y99.308 E.53876
G1 X118.504 Y99.591 E.01228
G1 X130.403 Y111.489 E.53739
G1 X130.104 Y111.734 E.01233
G1 X118.269 Y99.898 E.53454
G1 X118.038 Y100.21 E.0124
G1 X129.787 Y111.96 E.53065
G1 X129.458 Y112.174 E.01253
G1 X117.829 Y100.545 E.52524
G1 X117.62 Y100.879 E.01259
G1 X129.114 Y112.373 E.51912
G1 X128.764 Y112.566 E.01277
G1 X117.44 Y101.242 E.51142
G1 X117.262 Y101.607 E.01297
G1 X128.388 Y112.733 E.50249
G1 X128.011 Y112.899 E.01316
G1 X117.109 Y101.997 E.49237
G1 X116.964 Y102.395 E.01353
G1 X127.604 Y113.035 E.48054
G1 X127.185 Y113.16 E.01394
G1 X116.841 Y102.816 E.46719
G1 X116.73 Y103.248 E.01424
G1 X126.744 Y113.262 E.45228
G1 X126.287 Y113.348 E.01486
G1 X116.652 Y103.713 E.43515
G1 X116.593 Y104.197 E.01558
G1 X125.803 Y113.407 E.41596
G1 X125.294 Y113.441 E.01629
M73 P1 R57
G1 X116.558 Y104.705 E.39457
G1 X116.561 Y105.252 E.01746
G1 X124.757 Y113.447 E.37013
G1 X124.178 Y113.412 E.01851
G1 X116.589 Y105.823 E.34274
G1 X116.672 Y106.449 E.02015
G1 X123.539 Y113.316 E.31017
G1 X123.242 Y113.269 E.0096
G1 X122.842 Y113.162 E.01324
G1 X116.833 Y107.153 E.27141
G1 X116.874 Y107.33 E.00582
G1 X117.087 Y107.95 E.02094
G1 X122.052 Y112.915 E.22423
G1 X121.7 Y112.783 E.012
G1 X121.07 Y112.476 E.0224
G1 X117.516 Y108.923 E.16049
G1 X117.912 Y109.607 E.02525
G1 X118.337 Y110.204 E.02341
G1 X118.89 Y110.839 E.02688
G1 X120.217 Y112.166 E.05993
M204 S1000
; stop printing object S1D_Nose_Cone_Tip_10-31-23.STL id:0 copy 0
M106 S84.15
;LAYER_CHANGE
;Z:0.4
;HEIGHT:0.2
;BEFORE_LAYER_CHANGE
G92 E0.0
;0.4


;WIPE_START
G1 F8640
G1 X118.89 Y110.839 E-.43329
G1 X118.337 Y110.204 E-.19437
G1 X118.005 Y109.737 E-.13233
;WIPE_END
G1 E-.04 F2100
G1 Z.6 F720
;AFTER_LAYER_CHANGE
;0.4
M104 S210 ; set temperature
G1 X114.915 Y111.984 F10800
G1 Z.4 F720
G1 E.8 F2100
;TYPE:Skirt/Brim
;WIDTH:0.42
G1 F3000
G1 X114.72 Y111.715 E.01041
G1 X114.078 Y110.611 E.04004
G1 X113.612 Y109.593 E.0351
G1 X113.203 Y108.408 E.03932
G1 X112.942 Y107.319 E.03509
G1 X112.766 Y106.046 E.0403
G1 X112.722 Y104.818 E.03855
G1 X112.809 Y103.531 E.04043
G1 X112.994 Y102.427 E.0351
G1 X113.312 Y101.237 E.03863
G1 X113.703 Y100.189 E.03504
G1 X114.267 Y99.035 E.0403
G1 X114.927 Y97.979 E.03904
G1 X115.599 Y97.102 E.03464
G1 X116.451 Y96.185 E.03925
G1 X117.291 Y95.442 E.03516
G1 X118.33 Y94.691 E.04019
G1 X119.392 Y94.077 E.03846
G1 X120.422 Y93.606 E.03553
G1 X121.592 Y93.203 E.03879
G1 X122.681 Y92.942 E.03509
G1 X123.906 Y92.77 E.03879
G1 X125.179 Y92.722 E.03994
G1 X126.469 Y92.809 E.04055
G1 X127.56 Y92.991 E.03468
G1 X128.764 Y93.312 E.03907
G1 X129.811 Y93.703 E.03502
G1 X130.928 Y94.247 E.03896
M73 Q1 S57
G1 X132.009 Y94.918 E.03992
G1 X132.898 Y95.599 E.0351
G1 X133.816 Y96.453 E.03931
G1 X134.558 Y97.291 E.03509
G1 X135.306 Y98.324 E.03999
G1 X135.922 Y99.389 E.03858
G1 X136.394 Y100.422 E.03562
G1 X136.797 Y101.592 E.03879
G1 X137.058 Y102.681 E.03509
G1 X137.23 Y103.904 E.03873
G1 X137.278 Y105.179 E.04001
G1 X137.211 Y106.291 E.03493
G1 X137.016 Y107.527 E.03923
G1 X136.735 Y108.613 E.03517
G1 X136.297 Y109.811 E.03998
G1 X135.752 Y110.93 E.03904
G1 X135.166 Y111.886 E.03516
G1 X134.401 Y112.898 E.03978
G1 X133.547 Y113.816 E.03932
G1 X132.579 Y114.661 E.0403
G1 X131.667 Y115.311 E.0351
G1 X130.608 Y115.924 E.03838
G1 X129.578 Y116.394 E.0355
G1 X128.408 Y116.797 E.03879
G1 X127.319 Y117.058 E.03509
G1 X126.096 Y117.23 E.03873
G1 X124.821 Y117.278 E.04001
G1 X123.709 Y117.211 E.03493
G1 X122.473 Y117.016 E.03923
G1 X121.39 Y116.736 E.03507
G1 X120.189 Y116.297 E.04009
G1 X119.07 Y115.752 E.03905
G1 X118.114 Y115.166 E.03516
G1 X117.102 Y114.402 E.03977
G1 X116.186 Y113.55 E.03921
G1 X115.442 Y112.709 E.0352
G1 X114.95 Y112.032 E.02623
G1 X115.257 Y111.81 F10800
G1 F3000
G1 X115.012 Y111.473 E.01306
G1 X114.405 Y110.422 E.03807
G1 X113.957 Y109.439 E.03385
G1 X113.565 Y108.301 E.03776
G1 X113.313 Y107.251 E.03385
G1 X113.141 Y106.017 E.03906
G1 X113.099 Y104.821 E.03752
G1 X113.165 Y103.735 E.0341
G1 X113.353 Y102.548 E.03768
G1 X113.623 Y101.504 E.03383
G1 X114.048 Y100.34 E.03886
G1 X114.596 Y99.22 E.03906
G1 X115.237 Y98.192 E.03801
G1 X115.896 Y97.334 E.03392
G1 X116.716 Y96.454 E.0377
G1 X117.526 Y95.737 E.03391
G1 X118.532 Y95.009 E.03896
G1 X119.578 Y94.405 E.03786
G1 X120.561 Y93.957 E.03386
G1 X121.699 Y93.565 E.03776
G1 X122.749 Y93.313 E.03385
G1 X123.942 Y93.145 E.03776
G1 X125.179 Y93.099 E.03882
G1 X126.265 Y93.165 E.0341
G1 X127.454 Y93.354 E.03777
G1 X128.5 Y93.624 E.03385
G1 X129.66 Y94.048 E.03875
G1 X130.748 Y94.578 E.03793
G1 X131.673 Y95.144 E.034
G1 X132.635 Y95.869 E.03777
G1 X133.547 Y96.717 E.03906
G1 X134.263 Y97.526 E.03385
G1 X134.988 Y98.527 E.03876
G1 X135.595 Y99.578 E.03807
G1 X136.043 Y100.561 E.03386
